X: 12500
T: Farewell To Fiunary
R: waltz
M: 3/4
K: Gmajor
V: 1
G4 B2|d4 B2|A4 G2|F4 A2|B4 E2|E4 F2|E4 D2|B,4 D2|
E4 F2|G4 A2|B6|d4 d2|e4 e2|d4 B2|A6|G4:|
V: 2
[D6 G,6]|[D6 G,6]|[A,6 D6]|[A,6 D6]|[B,6 E6]|[B,4 E4] [B,2 D2]|[B,6]|[G,4] [B,2]|
[B,4 E4] [B,2 D2]|[G,4 D4] [A,2 D2]|[G,6 D6]|[B,6 G6]|[G,6 G6]|[B,6 G6]|[A,6 F6]|[G,4 G4]:|

